X:1
T:Title
%%score ( 1 2 ) ( 3 4 )
L:1/8
M:3/4
K:G
V:1 treble nm="Grand Piano, Unnamed-000"
V:2 treble 
V:3 bass nm="Choir Pad, Belmont"
V:4 bass 
V:1
 D2 [GB]4 | [FA]2 G4 | [DF]2 [DF]2 [CE]2 | [CG]2 D4 | [Dd]2 d2 c2 | [DB]2 B2 A2 | [EG]2 G4- | %7
w: By~William~Gardiner,~1812 *|||||||
 G2 F4 | D2 [DB]4 | [CA]2 [B,G]4 | [DF]2 [DF]2 [CE]2 | [CG]2 [B,D]4 | [Dd]2 d2 c2 | [CA]2 G2 B2 | %14
w: |||||||
 [CA]2 [B,G]4- | [B,G]4 z2 |] %16
w: ||
V:2
 x6 | x6 | x6 | x6 | z2 D4 | z2 E4 | z2 D4- | D6 | x6 | x6 | x6 | x6 | z2 E4 | z2 D4 | x6 | x6 |] %16
V:3
 [G,B,]2 [G,D]4 | [D,C]2 [E,B,]4 | [B,,G,]2 [C,G,]4 | [E,G,]2 [G,B,]4 | [D,F,]2 [E,G,]2 [F,A,]2 | %5
 G,2 G,2 A,2 | [^C,_B,]2 =B,4- | B,2 A,4 | [D,F,]2 G,4 | [D,F,]2 [E,G,]4 | [B,,G,]2 [C,G,]4 | %11
 [E,G,]2 G,4 | [B,,G,]2 [C,G,]4 | [C,A,]2 B,2 G,2 | [D,F,]2 [G,,G,]4- | [G,,G,]4 z2 |] %16
V:4
 x6 | x6 | x6 | x6 | x6 | z2 C,4 | z2 D,4- | D,6 | x6 | x6 | x6 | x6 | x6 | z2 D,4 | x6 | x6 |] %16

